icons/databricks-light.svg

<svg width="256" height="256" viewBox="0 0 256 256" fill="none" xmlns="http://www.w3.org/2000/svg">
<g clip-path="url(#clip0_653_2)">
<path d="M196 0H60C26.8629 0 0 26.8629 0 60V196C0 229.137 26.8629 256 60 256H196C229.137 256 256 229.137 256 196V60C256 26.8629 229.137 0 196 0Z" fill="#F4F2ED"/>
<path fill-rule="evenodd" clip-rule="evenodd" d="M225.351 178.76V141.936L221.453 139.447L127.919 191.697L39.2561 141.936V120.538L127.919 169.803L225.838 115.562V79.2357L221.941 76.7476L127.919 129.496L42.6662 81.7238L127.919 33.9524L196.609 72.269L201.968 69.2833V65.3024L127.919 24L30 78.2404V83.7143L127.919 138.453L216.582 88.6904V110.586L127.919 160.347L33.8973 107.6L30 110.088V146.912L127.919 201.153L216.582 151.888V173.286L127.919 223.047L33.8973 170.797L30 173.286V178.76L127.919 233L225.351 178.76Z" fill="#FF3621"/>
</g>
<defs>
<clipPath id="clip0_653_2">
<rect width="256" height="256" fill="white"/>
</clipPath>
</defs>
</svg>

<svg xmlns="http://www.w3.org/2000/svg" width="256" height="256" fill="none"><g clip-path="url(#clip0_653_2)"><path fill="#F4F2ED" d="M196 0H60C26.863 0 0 26.863 0 60v136c0 33.137 26.863 60 60 60h136c33.137 0 60-26.863 60-60V60c0-33.137-26.863-60-60-60"/><path fill="#FF3621" fill-rule="evenodd" d="M225.351 178.76v-36.824l-3.898-2.489-93.534 52.25-88.663-49.761v-21.398l88.663 49.265 97.919-54.241V79.236l-3.897-2.488-94.022 52.748-85.253-47.772 85.253-47.772 68.69 38.317 5.359-2.986v-3.98L127.919 24 30 78.24v5.474l97.919 54.739 88.663-49.763v21.896l-88.663 49.761L33.897 107.6 30 110.088v36.824l97.919 54.241 88.663-49.265v21.398l-88.663 49.761-94.022-52.25L30 173.286v5.474L127.919 233z" clip-rule="evenodd"/></g><defs><clipPath id="clip0_653_2"><path fill="#fff" d="M0 0h256v256H0z"/></clipPath></defs></svg>
